X:374
T:Drag Her round the Road
T:Shores of Lough Graney, The
R:reel
D:Four Men and a Dog: Shifting Gravel
D:Molloy, Peoples, Brady
Z:id:hn-reel-374
M:C|
K:Em
BEED E2GE|E2GE DEGA|BEED E2DE|1 GABG A2GA:|2 GABG A2BA||
~G3F GBdB|c2AB cded|~B3A GBde|dBGB A2BA|
~G3F GBdB|c2AB cdef|gedB c2ge|dBGB A2GA||
